X: 37162
T: Sir Arthur Shaen
R: reel
M: 4/4
K: Aminor
eA Aedc dB B2|cB/A/ dB GE e2|ae/d/ ce dg z2|e2 dc B2 z2|
ac' ba g/a/b z2|ea ag e/f/g z2|e4 ce dg|ae dB A4|
A/c/e A/c/e e/d/c z2|B/c/d A/B/c BA z2|ae/d/ ce dg z2|e2 ga a4||
c/d/e dc BA zB|cB/A/ dB GE z2|e4 dc BA|G2 AB B4|
c'e ec' ba z2|g/a/b ea ag z2|ea g/a/b ge z2|e2 dc B4|
g4 ec dB|cA G/A/B Ac dB|c/d/e dg ae z2|c2 BA A4||

